public/images/backgrounds/bg-header.svg

<svg width="1440" height="240" xmlns="http://www.w3.org/2000/svg" xmlns:xlink="http://www.w3.org/1999/xlink">
  <defs>
    <path id="a" d="M0 0h1440v240H0z"/>
  </defs>
  <g fill="none" fill-rule="evenodd">
    <path d="M0 0h1440v240H0z" fill="#EF2B55" fill-rule="nonzero"/>
    <mask id="b" fill="#fff">
      <use xlink:href="#a"/>
    </mask>
    <g mask="url(#b)">
      <path d="M1602-340v4.803c-2.598 203.241-168.173 367.201-372.011 367.201-39.043.031-79.163-19.972-116.305-32.004 132.322-217.376 133.638-476.516 1.316-693.892a372.062 372.062 0 01114.989-18.11c203.838 0 369.413 163.938 372.011 367.2V-340z" fill="#FED533" fill-rule="nonzero"/>
      <path d="M1604-345.47C1598.849 132.275 1209.95 518 731 518s-868.143-386.001-873-864c4.857 371.019 307.143 670.33 679.328 670.33a681.423 681.423 0 00126.742-11.796 705.116 705.116 0 00233.075 39.324c387.227 0 701.704-311.346 706.855-697.327z" fill="#001E3C" fill-rule="nonzero"/>
      <path d="M1602.985-348.49v2.907a.828.828 0 010 .236C1598.778-55.051 1361.916 179 1070.291 179A534.545 534.545 0 01969 169.377 681.48 681.48 0 001116.64-.75a371.825 371.825 0 00114.835 18.126c203.564 0 368.915-163.588 371.51-366.375-.01.17-.01.34 0 .51z"/>
      <path d="M1603-351v5.189C1598.793-55.258 1361.926 179 1070.293 179A534.113 534.113 0 01969 169.37 681.913 681.913 0 001116.644-.91a371.54 371.54 0 00114.837 18.064c203.569 0 368.924-163.733 371.519-366.7V-351z"/>
      <path d="M1604-346v.983C1598.848 40.793 1284.348 352 897.093 352A705.529 705.529 0 01664 312.693a676.47 676.47 0 00305.79-143.585 534.518 534.518 0 00101.326 9.63C1362.786 178.718 1599.733-55.488 1604-346z" fill="#EF2B55" fill-rule="nonzero"/>
      <path d="M1602.186-349v3.444a.83.83 0 010 .235C1597.97-54.486 1360.66 180 1068.482 180A535.576 535.576 0 01967 170.36 682.753 682.753 0 001114.92-.086a372.542 372.542 0 00115.052 18.14c203.95 0 369.614-163.892 372.214-367.055z" fill="#3A6EFF" fill-rule="nonzero"/>
      <path d="M537.012-353.32c-.164 104.502 30.422 206.732 87.931 293.9C551.747 22.563 450.565 74.088 341.343 85A706.661 706.661 0 01244-80.217c115.587-41.2 192.794-150.853 192.794-273.813 0-122.96-77.207-232.612-192.794-273.812A706.66 706.66 0 01341.343-793c109.487 10.956 210.878 62.723 284.091 145.05-57.837 87.312-88.603 189.826-88.422 294.63z" fill="#EF2B55" fill-rule="nonzero"/>
      <path d="M1117.469-3.33c-39.384 64.658-90.846 125.698-149.099 173.954C827.818 143.291 704.852 60.736 626-59.082c149.66-167.325 149.872-420.733.49-588.308C705.606-767.216 829.567-849.994 970.335-877c57.706 48.049 108.038 102.691 147.135 166.876C964.583-660.241 860.16-514.726 860.16-353.522c0 161.205 104.423 300.31 257.309 350.192z" fill="#000814" fill-rule="nonzero"/>
      <path d="M664 314.196A680.81 680.81 0 01537.281 326C165.086 326.02-137.144 26.527-142-344.714V-348c3.086 240.766 199.062 434.985 440.351 434.985 14.875 0 29.567-.728 44.075-2.184A708.074 708.074 0 00664 314.196z" fill="#FED533" fill-rule="nonzero"/>
      <path d="M342.33 84.812C327.861 86.267 312.852 88 297.964 88 56.887 88-138.916-106.014-142-346.526V-348c1.447 93.402 47.756 180.391 124.414 233.707S156.698-47.859 244.697-79.05c16.526 39.42 49.07 94.04 97.633 163.862z" fill="#3A6EFF" fill-rule="nonzero"/>
      <path d="M663.43 314c-126.706-44.45-237.854-123.667-321.1-229.188C451.581 73.902 552.46 21.97 625.674-60 704.588 59.828 827.705 143.265 968.37 170.623 880.3 243.7 775.793 292.71 663.43 314z" fill="#001E3C" fill-rule="nonzero"/>
    </g>
  </g>
</svg>

<svg xmlns="http://www.w3.org/2000/svg" width="1440" height="240" viewBox="0 0 1440 240" fill="none">
  <path d="M0 0H1440V240H0V0Z" fill="#E74141"/>
  <mask id="mask0_9_21" style="mask-type:alpha" maskUnits="userSpaceOnUse" x="0" y="0" width="1440" height="240">
    <path d="M0 0H1440V240H0V0Z" fill="white"/>
  </mask>
  <g mask="url(#mask0_9_21)">
    <path d="M1602 -340V-335.197C1599.4 -131.956 1433.83 32.004 1229.99 32.004C1190.95 32.035 1150.83 12.032 1113.68 0C1246.01 -217.376 1247.32 -476.516 1115 -693.892C1152.14 -705.924 1190.95 -712.036 1229.99 -712.002C1433.83 -712.002 1599.4 -548.064 1602 -344.802V-340Z" fill="#FED533"/>
    <path d="M1604 -345.47C1598.85 132.275 1209.95 518 731 518C252.05 518 -137.143 131.999 -142 -346C-137.143 25.019 165.143 324.33 537.328 324.33C579.851 324.361 622.283 320.412 664.07 312.534C738.996 338.663 817.794 351.958 897.145 351.858C1284.37 351.858 1598.85 40.512 1604 -345.469V-345.47Z" fill="#17A1FB"/>
    <path d="M1604 -346V-345.017C1598.85 40.793 1284.35 352 897.093 352C817.738 352.1 738.934 338.811 664 312.693C776.433 291.463 881.643 242.06 969.79 169.108C1003.18 175.534 1037.11 178.758 1071.12 178.738C1362.79 178.718 1599.73 -55.488 1604 -346Z" fill="#E74141"/>
    <path d="M1602.19 -349V-345.556C1602.2 -345.478 1602.2 -345.399 1602.19 -345.321C1597.97 -54.486 1360.66 180 1068.48 180C1034.43 180.021 1000.44 176.793 967 170.36C1025.42 122.144 1075.41 64.5415 1114.92 -0.085968C1152.08 11.9554 1190.91 18.0769 1229.97 18.054C1433.92 18.054 1599.59 -145.838 1602.19 -349.001V-349Z" fill="#4BF2C9"/>
    <path d="M537.012 -353.32C536.848 -248.818 567.434 -146.588 624.943 -59.42C551.747 22.563 450.565 74.088 341.343 85C301.539 34.6065 268.79 -20.9775 244 -80.217C359.587 -121.417 436.794 -231.07 436.794 -354.03C436.794 -476.99 359.587 -586.642 244 -627.842C268.795 -687.061 301.544 -742.625 341.343 -793C450.83 -782.044 552.221 -730.277 625.434 -647.95C567.597 -560.638 536.831 -458.124 537.012 -353.32V-353.32Z" fill="#001E3C"/>
    <path d="M1117.47 -3.33002C1078.08 61.328 1026.62 122.368 968.37 170.624C827.818 143.291 704.852 60.736 626 -59.082C775.66 -226.407 775.872 -479.815 626.49 -647.39C705.606 -767.216 829.567 -849.994 970.335 -877C1028.04 -828.951 1078.37 -774.309 1117.47 -710.124C964.583 -660.241 860.16 -514.726 860.16 -353.522C860.16 -192.317 964.583 -53.212 1117.47 -3.33002Z" fill="#001E3C"/>
    <path d="M664 314.196C622.222 322.079 579.797 326.031 537.281 326C165.086 326.02 -137.144 26.527 -142 -344.714V-348C-138.914 -107.234 57.062 86.985 298.351 86.985C313.226 86.985 327.918 86.257 342.426 84.801C425.687 190.222 537.219 269.784 664 314.196Z" fill="#FED533"/>
    <path d="M342.33 84.812C327.861 86.267 312.852 88 297.964 88C56.887 88 -138.916 -106.014 -142 -346.526V-348C-140.553 -254.598 -94.244 -167.609 -17.586 -114.293C59.072 -60.977 156.698 -47.859 244.697 -79.05C261.223 -39.63 293.767 14.99 342.33 84.812Z" fill="#4BF2C9"/>
    <path d="M663.43 314C536.724 269.55 425.576 190.333 342.33 84.812C451.581 73.902 552.46 21.97 625.674 -60C704.588 59.828 827.705 143.265 968.37 170.623C880.3 243.7 775.793 292.71 663.43 314Z" fill="#17A1FB"/>
  </g>
</svg>
